X:1
T:Aus tiefer Not schrei ich zu dir
T:Martin Luther (after Psalm 130)
T:Michael Praetorius (1571-1621)
T:Musae Sionae, Part IX (1610): #79
%%score 1 2 3
L:1/8
M:4/2
K:F
V:1 bass nm="Bass 1" snm="B.1"
V:2 bass nm="Bass 2" snm="B.2"
V:3 bass nm="Bass 3" snm="B.3"
V:1
 z16 | z16 | z4 A,8 D,4 | A,8 B,8 | A,8 F,6 G,2 | A,6 G,2 F,4 F,4 | E,6 A,2 D,4 A,4- | %7
w: ||Aus tie-|fer Not|schrei ich zu|dir, schrei * zu|dir, aus tie- fer|
 A,4 B,2 A,2 G,2 F,2 E,4- | E,4 A,4 G,8 | D,8 D,2 E,2 F,4- | F,4 _E,8 D,4- | %11
w: _ Not schrei ich zu dir,|_ Herr Gott,|er- hör _ _|_ mein Ru-|
 D,4 C,4 D,3 D, F,2 G,2 | F,2 D,2 G,8 ^F,4 | ^F,8 z4 =F,4 | D,2 E,2 F,2 D,2 F,4 G,4 | A,4 F,4 E,8 | %16
w: * * fen, Herr Gott, er-|hör mein Ru- *|fen, dein|gnä- * * dig Ohr neig|her zu mir,|
 z4 A,4 D,4 A,4 | B,4 A,4 F,8 | G,8 A,8 | z4 A,4 B,4 C4 | B,4 G,4 F,8 | _E,8 D,8- | D,8 z4 G,4 | %23
w: dein gnä- dig|Ohr neig her|zu mir,|und mei- ner|Bitt sie öf-|* fen.|_ Denn|
 F,4 B,4 A,8 | B,4 C3 B, A,2 G,2 G,4- | G,4 ^F,4 G,4 z2 B,2 | A,2 B,2 C4 F,6 F,2 | %27
w: so du willt|das se- * * * *|* hen, an, was|Sünd und Un- recht, was|
 F,2 G,2 A,4 G,4 A,4- | A,4 G,2 F,2 E,2 E,2 D,4 | z2 G,2 C2 B,2 A,4 G,4 | A,4 C4 B,8 | A,16 | %32
w: Sünd und Un- recht, ist|_ _ _ _ ge- tan,|wer kann, Herr, für dir|blei- * *|ben,|
 z4 F,4 B,4 A,4 | G,4 D,4 z2 F,2 B,4- | B,4 A,4 G,4 F,4 | G,2 D,2 F,6 D,4 C,2 | %36
w: wer kann, Herr,|für dir, wer Kann,|_ Herr, für _|_ dir blei- ben, wer|
 D,3 D, F,2 E,2 D,2 D,4 F,2 | B,4 A,4 G,4 D,4 | F,8 _E,8 | D,4 z2 F,2 D,2 D,2 D,4- | D,4 D,4 G,8- | %41
w: kann, wer kann, Herr, für dir, wer|kann, Herr, für dir|blei- *|ben, wer kann, Herr, für|_ dir blei-|
 G,16 | !fermata!^F,16 |] %43
w: |ben?|
V:2
 z16 | z4 E,4 A,,4 E,4 | F,4 E,4 C,4 G,4 | E,4 z2 F,2 D,4 G,4 | F,4 E,4 D,2 C,2 B,,4 | A,,12 D,4- | %6
w: |Aus tie- fer|Not schrei ich zu|dir, Herr Gott, er-|hör mein Ru- * *|fen, aus|
 D,2 D,2 C,4 F,6 E,2 | D,2 C,2 G,2 F,2 E,2 D,2 C,4- | C,4 F,6 C,B,, E,4 | F,4 G,4 F,4 D,4- | %10
w: _ tie- fer Not schrei|ich zu dir, schrei ich zu dir,|_ Herr _ _ _|Gott, er- hör mein|
 D,4 C,8 B,,4- | B,,2 A,,2 G,,4 A,,6 B,,2 | A,,2 F,,2 B,,4 A,,8 | z4 A,,6 D,,2 A,,4 | %14
w: _ Ru- *|* * * fen, er-|hör mein- * fen|dein gnä- dig|
 B,,4 A,,4 D,4 B,,4 | A,,4 D,4 ^C,8 | z4 F,4 G,4 E,4 | G,4 C,4 D,2 E,2 F,2 E,2 | D,4 D,4 E,8 | %19
w: Ohr neig her zu|mir, zu mir,|dein gnä- dig|Ohr neig her _ _ _|_ zu mir,|
 z4 F,4 G,4 F,4 | D,4 _E,8 D,4- | D,4 C,8 =B,,2 A,,2 | =B,,8 z4 C,4 | D,4 G,4 F,8 | D,4 E,8 D,4 | %25
w: und mei- ner|Bitt sie öf-|fen _ _ _|_ denn|so du willt|das se- hen|
 C,6 C,2 B,,2 C,2 D,3 E, | F,4 _E,4 D,4 z2 D,2 | C,2 D,2 =E,2 F,4 E,2 D,2 C,2 | C,6 D,4 C,4 =B,,2 | %29
w: an, was Sünd und Un- recht|ist ge- tan, was|Sünd und un- recht, was Sünd und|Un- recht ist ge-|
 C,2 E,2 F,2 G,4 F,4 E,2 | F,6 C,2 D,4 E,4 | F,4 z2 C,2 F,6 E,2 | D,4 C,4 z2 D,2 F,4 | %33
w: tan, was Sünd und Un- *|* recht ist ge-|tan, wer kann, Herr,|für dir, wer kann,|
 E,2 D,4 G,2 C,4 D,2 D,2 | F,6 E,2 D,4 C,4 | B,,4 A,,8 G,,4 | B,,4 A,,2 G,,2 F,,3 G,, A,,4 | %37
w: Herr, für dir blei- ben, wer|kann, Herr, für dir|blei- ben, wer|kann, Herr, für dir _ _|
 G,,2 D,4 C,2 D,2 E,2 F,2 D,2 | D,4 C,6 B,,A,, G,,2 A,,2 | B,,2 A,,4 A,,2 B,,8- | %40
w: wer kann, Herr, für _ _ dir|blei- * * * * *|* ben, wer kann,|
 B,,4 A,,4 B,,4 C,4 | C,2 B,,A,, G,,2 A,,2 B,,8 | !fermata!A,,16 |] %43
w: _ Herr, für dir|blei- * * * * *|ben?|
V:3
 A,,8 D,,4 A,,4 | B,,4 A,,4 F,,4 G,,4 | A,,12 B,,4 | A,,4 D,4 G,,8 | D,4 A,,4 D,,8- | D,,16 | %6
w: Au tie- fer|Not schrei ich zu|dir, zu|dir, aus tie-|fer, aus tie-||
 A,,8 B,,4 A,,4 | F,,4 G,,8 A,,4- | A,,4 A,,4 B,,4 C,4 | B,,16 | G,,8 F,,8 | _E,,8 D,,8 | %12
w: fer Not schrei|ich zu dir,|_ Herr Gott, er-|hör|mein Ru-|* fen,|
 D,,8 D,,8 | D,,8 D,,8 | D,,8 D,,8 | D,,8 A,,8 | z4 F,,4 B,,4 A,,4 | G,,4 F,,4 B,,8- | %18
w: dein gnä-|dig Ohr|neig her|zu mir,|dein gnä- dig|Ohr neig her|
 B,,4 B,,4 A,,8 | z4 D,4 G,,4 A,,4 | B,,12 B,,4 | C,4 C,,4 G,,8 | G,,8 z4 _E,,4 | B,,4 G,,4 D,8 | %24
w: _ zu mir,|und mei- ner|Bit sie|öf- * *|fen. Denn|so du willt|
 G,,4 C,8 B,,4 | A,,4 A,,4 G,,4 z2 G,,2 | D,2 D,2 C,4 B,,6 B,,2 | A,,2 B,,2 C,8 F,,4- | %28
w: das se- *|* hen, an was|Sünd und un- recht, was|Sünd und Un- recht,|
 F,,2 F,,2 E,,2 F,,2 G,,8 | C,,2 C,2 A,,2 B,,2 C,8 | F,,4 A,,4 G,,8 | F,,8 z4 F,,4 | %32
w: _ was Sünd und Un-|recht, was Sünd und Un-|recht ist ge-|tan, wer|
 B,,4 A,,4 G,,4 D,,4 | z2 G,,2 B,,4 A,,4 G,,4 | F,,4 F,,4 B,,6 A,,2 | G,,4 D,,4 F,,4 _E,,4 | %36
w: kann, Herr für dir,|wer kann, Herr, für|dir, wer kann, Herr,|für dir blei- *|
 D,,16 | z4 F,,4 B,,6 A,,G,, | F,,6 E,,D,, C,,8 | D,,6 D,,2 G,,4 G,,4 | G,,4 F,,4 _E,,8- | %41
w: ben,|wer kann, _ _|_ _ _ _|Herr, wer kann, Herr,|für dir blei-|
 E,,8 D,,8- | !fermata!D,,16 |] %43
w: * ben?|_|

